X:453
T:The Market Lass
C:John Burbank, 1799
S:Colin Hume's website,  colinhume.com  - chords can also be printed below the stave.
Q:1/2=120
M:2/2
L:1/8
K:C
P:A
|: gf | "C"e2c2 cBce | "G7"d2B2 G2AB | "C"cBcd "Am"edef | "Dm"e4 "G7"d2gf |\
"C"e2c2 cBce | "G7"d2B2 G2c2 | "Am"Bcde "G7"fdcB | "C"c2c2 c2 :|
P:B
|: EF | "C"GFGA GABc | "G7"dBdB G2DE | "G7"FEFG FBdc | "C"BAGF E2EF |\
"C"GFGA "Am"GcBc | "F"AGAB "Dm"Adcd | "G7"Bcde fdcB | "C"c2c2 c2 :|

